img/svg/x.svg

<svg class="sc-aXZVg ktFCMi mx-icon" focusable="false" width="" height="" fill="currentColor" aria-hidden="true" viewBox="0 0 28 25" data-icon="NewTwitterOutLined"><path d="M19.9192 23.7976L2.44947 1.20238H8.08076L25.5505 23.7976H19.9192Z" stroke="currentColor" stroke-width="2.40475"></path><path fill-rule="evenodd" clip-rule="evenodd" d="M21.9785 0H26.1935L16.7546 10.9771L14.7319 8.4275L21.9785 0ZM10.6648 13.1575L0.48172 25H4.69677L12.6875 15.7071L10.6648 13.1575Z" fill="currentColor"></path></svg>

<svg class="sc-aXZVg ktFCMi mx-icon" fill="currentColor" aria-hidden="true" viewBox="0 0 28 25" data-icon="NewTwitterOutLined"><path d="M19.92 23.798L2.45 1.202h5.63l17.47 22.596h-5.63z" stroke="currentColor" stroke-width="2.405"/><path fill-rule="evenodd" clip-rule="evenodd" d="M21.979 0h4.215l-9.44 10.977-2.022-2.55L21.979 0zM10.665 13.158L.482 25h4.215l7.99-9.293-2.022-2.55z"/></svg>
